X: 415
P: Longways for as many as will
M: C|
L: 1/8
K: Bb
(DE) F2 F2 B2 | G4 G2 (FE) | (DE) F2 F2 (de) | c4 c2 FE |\
(DE) F2 F2 B2 | G4 g4 | (fg) (fd) c2 B2 | B6 :|
|: FE |\
d2 (ed) (cB) (cA) | B2 (AG) F2 f2 | (ga) b2 (a3 g/a/) | b6 :|

